X: 1142
T: Top the Candle   #2
R: slipjig
%S: s:2 b:10(6+6)
B: O'Neill's 1850 Music of Ireland #1142
O: Kennedy.
Z: Stephen Foy (shf@access.digex.net)
N: Fixed two incorrect note lengths. [JC]
%: abc 1.6
M: 9/8
K: D
"^A"|: (DED) AzF F2D | C2E- EzF G2E | (DED) AzD F2D | A,2(D D)zF ED2 "^B":: (f2g/f/) ezd c2A |
| Bz(e e)zd c2A |[1 (B2c/B/) AzG FD2 | A,2(D D)zF ED2 :|[2 B3 A2G FE2 | (DF)z (EG)z F2E |]
